X:444
T:Maids' Morris
S:Colin Hume's website,  colinhume.com  - chords can also be printed below the stave.
Q:1/2=120
M:2/2
L:1/4
K:C
%%stretchstaff 0
P:A
|:G | "C"cc "F"A/B/c | "G"B d2 c/B/ | "Am"cA "D7"A^f | "G"g3 :|
P:B
|: g | "F"a f2 f | "C/E"g e2 e | "Dm"fA Ad | "G"BG2g |\
"F"a/g/f fe/f/ | "C"g/f/e/d/ "Am"cd | "G7"BG ge | "C"c3 :|

